usr/share/icons/biglinux-icons-material/scalable/apps/input-mouse.svg

<svg xmlns="http://www.w3.org/2000/svg" xml:space="preserve" width="24" height="24" version="1"><defs><radialGradient id="a" cx="0" cy="0" r="1" fx="0" fy="0" gradientTransform="matrix(0 16.5 -16.5 0 9 .75)" gradientUnits="userSpaceOnUse" spreadMethod="pad"><stop offset="0" style="stop-opacity:1;stop-color:#8fc8ff"/><stop offset="1" style="stop-opacity:1;stop-color:#0056a8"/></radialGradient></defs><path d="M7.195.836c.09 0 .176-.012.258-.035a23.86 23.86 0 0 1 3.231.008 10.26 10.26 0 0 1 2.836.636c1.519.625 2.558 1.711 3.121 3.254.316.93.507 1.887.566 2.867a21.227 21.227 0 0 1-.086 3.696 8.976 8.976 0 0 1-.672 2.488c-.637 1.383-1.672 2.336-3.101 2.859a11.693 11.693 0 0 1-3.575.618 15.998 15.998 0 0 1-4.089-.309c-2.481-.551-4.016-2.066-4.594-4.543a14.244 14.244 0 0 1-.336-3.383c-.027-1.211.101-2.41.387-3.59.609-2.312 2.078-3.746 4.406-4.3A10.27 10.27 0 0 1 7.195.836Z" style="fill:url(#a);fill-rule:evenodd;stroke:none" transform="matrix(1.33333 0 0 1.33333 0 0)"/><path d="M6.961 3.5h.734v3.809c0 .718.575 1.293 1.293 1.293.715 0 1.289-.575 1.289-1.293V3.5h.762zm4.133.004v3.793a2.102 2.102 0 0 1-2.106 2.109 2.105 2.105 0 0 1-2.109-2.109V3.504a2.22 2.22 0 0 0-2.145 2.223v4.507A4.256 4.256 0 0 0 9 14.5a4.256 4.256 0 0 0 4.266-4.266V5.727a2.221 2.221 0 0 0-2.172-2.223zM8.988 4.926c.27 0 .485.215.485.484v1.512a.487.487 0 0 1-.973 0V5.41c0-.269.219-.484.488-.484Z" style="fill:none;stroke:#000;stroke-width:.825;stroke-linecap:round;stroke-linejoin:round;stroke-miterlimit:4;stroke-dasharray:none;stroke-opacity:.121123" transform="matrix(1.33333 0 0 1.33333 0 0)"/><path d="M6.961 3.5h.734v3.809c0 .718.575 1.293 1.293 1.293.715 0 1.289-.575 1.289-1.293V3.5h.762zm4.133.004v3.793a2.102 2.102 0 0 1-2.106 2.109 2.105 2.105 0 0 1-2.109-2.109V3.504a2.22 2.22 0 0 0-2.145 2.223v4.507A4.256 4.256 0 0 0 9 14.5a4.256 4.256 0 0 0 4.266-4.266V5.727a2.221 2.221 0 0 0-2.172-2.223zM8.988 4.926c.27 0 .485.215.485.484v1.512a.487.487 0 0 1-.973 0V5.41c0-.269.219-.484.488-.484Z" style="fill:#fafafa;fill-opacity:1;fill-rule:nonzero;stroke:none" transform="matrix(1.33333 0 0 1.33333 0 0)"/></svg>

<?xml version="1.0" encoding="UTF-8" standalone="no"?>
<svg
   width="24"
   height="24"
   version="1"
   id="svg17803"
   sodipodi:docname="preferences-desktop-mouse.svg"
   inkscape:version="1.2.2 (b0a8486541, 2022-12-01)"
   xml:space="preserve"
   inkscape:export-filename="preferences-desktop-mouse.png"
   inkscape:export-xdpi="800"
   inkscape:export-ydpi="800"
   xmlns:inkscape="http://www.inkscape.org/namespaces/inkscape"
   xmlns:sodipodi="http://sodipodi.sourceforge.net/DTD/sodipodi-0.dtd"
   xmlns="http://www.w3.org/2000/svg"
   xmlns:svg="http://www.w3.org/2000/svg"><defs
     id="defs17807"><radialGradient
       id="paint0_radial_29_149"
       cx="0"
       cy="0"
       r="1"
       gradientUnits="userSpaceOnUse"
       gradientTransform="matrix(0,10.999988,-11.000006,0,12.000006,1.0000002)"><stop
         stop-color="#80D2FF"
         id="stop17930" /><stop
         offset="1"
         stop-color="#2991C9"
         id="stop17932"
         style="stop-color:#008cdc;stop-opacity:1;" /></radialGradient><radialGradient
       id="paint0_radial_29_23"
       cx="0"
       cy="0"
       r="1"
       gradientUnits="userSpaceOnUse"
       gradientTransform="matrix(0,22,-22,0,12,1)"><stop
         stop-color="#8FC8FF"
         id="stop2690" /><stop
         offset="1"
         stop-color="#0056A8"
         id="stop2692" /></radialGradient><radialGradient
       fx="0"
       fy="0"
       cx="0"
       cy="0"
       r="1"
       gradientUnits="userSpaceOnUse"
       gradientTransform="matrix(0,16.5,-16.5,0,8.999991,0.750011)"
       spreadMethod="pad"
       id="radialGradient3147"><stop
         style="stop-opacity:1;stop-color:#8fc8ff"
         offset="0"
         id="stop3143" /><stop
         style="stop-opacity:1;stop-color:#0056a8"
         offset="1"
         id="stop3145" /></radialGradient><radialGradient
       fx="0"
       fy="0"
       cx="0"
       cy="0"
       r="1"
       gradientUnits="userSpaceOnUse"
       gradientTransform="matrix(0,16.5,-16.5,0,8.999991,0.750011)"
       spreadMethod="pad"
       id="radialGradient3147-3"><stop
         style="stop-opacity:1;stop-color:#8fc8ff"
         offset="0"
         id="stop3143-6" /><stop
         style="stop-opacity:1;stop-color:#0056a8"
         offset="1"
         id="stop3145-7" /></radialGradient></defs><sodipodi:namedview
     id="namedview17805"
     pagecolor="#ffffff"
     bordercolor="#000000"
     borderopacity="0.25"
     inkscape:showpageshadow="2"
     inkscape:pageopacity="0.0"
     inkscape:pagecheckerboard="0"
     inkscape:deskcolor="#d1d1d1"
     showgrid="false"
     inkscape:zoom="6.8281249"
     inkscape:cx="19.258582"
     inkscape:cy="8.1281466"
     inkscape:window-width="2560"
     inkscape:window-height="1000"
     inkscape:window-x="1680"
     inkscape:window-y="0"
     inkscape:window-maximized="1"
     inkscape:current-layer="svg17803" /><g
     id="g3131"
     transform="matrix(1.3333333,0,0,1.3333333,-4.5225532e-4,-3.504174e-5)"><g
       id="g3133"><g
         id="g3135"><g
           id="g3141"><path
             d="m 7.195,0.836 c 0.09,0 0.176,-0.012 0.258,-0.035 1.078,-0.071 2.156,-0.067 3.231,0.008 0.976,0.078 1.921,0.289 2.836,0.636 1.519,0.625 2.558,1.711 3.121,3.254 0.316,0.93 0.507,1.887 0.566,2.867 0.078,1.235 0.051,2.465 -0.086,3.696 -0.105,0.863 -0.328,1.691 -0.672,2.488 -0.637,1.383 -1.672,2.336 -3.101,2.859 C 12.191,17 11,17.207 9.773,17.227 8.398,17.301 7.035,17.195 5.684,16.918 3.203,16.367 1.668,14.852 1.09,12.375 0.844,11.262 0.73,10.133 0.754,8.992 0.727,7.781 0.855,6.582 1.141,5.402 1.75,3.09 3.219,1.656 5.547,1.102 6.09,0.969 6.641,0.879 7.195,0.836 Z"
             style="fill:url(#radialGradient3147-3);fill-rule:evenodd;stroke:none"
             id="path3149" /></g></g></g><g
       id="g3151"><path
         d="m 6.961,3.5 h 0.734 v 3.809 c 0,0.718 0.575,1.293 1.293,1.293 0.715,0 1.289,-0.575 1.289,-1.293 V 3.5 h 0.762 z m 4.133,0.004 v 3.793 c 0,1.168 -0.938,2.109 -2.106,2.109 C 7.82,9.406 6.879,8.465 6.879,7.297 V 3.504 C 5.684,3.547 4.734,4.52 4.734,5.727 v 4.507 c 0,2.364 1.903,4.266 4.266,4.266 2.363,0 4.266,-1.902 4.266,-4.266 V 5.727 c 0,-1.215 -0.965,-2.192 -2.172,-2.223 z M 8.988,4.926 c 0.27,0 0.485,0.215 0.485,0.484 V 6.922 C 9.473,7.188 9.258,7.406 8.988,7.406 8.719,7.406 8.5,7.188 8.5,6.922 V 5.41 C 8.5,5.141 8.719,4.926 8.988,4.926 Z"
         style="fill:none;stroke:#000000;stroke-width:0.825;stroke-linecap:round;stroke-linejoin:round;stroke-miterlimit:4;stroke-dasharray:none;stroke-opacity:0.121123"
         id="path3153" /></g><path
       d="m 6.961,3.5 h 0.734 v 3.809 c 0,0.718 0.575,1.293 1.293,1.293 0.715,0 1.289,-0.575 1.289,-1.293 V 3.5 h 0.762 z m 4.133,0.004 v 3.793 c 0,1.168 -0.938,2.109 -2.106,2.109 C 7.82,9.406 6.879,8.465 6.879,7.297 V 3.504 C 5.684,3.547 4.734,4.52 4.734,5.727 v 4.507 c 0,2.364 1.903,4.266 4.266,4.266 2.363,0 4.266,-1.902 4.266,-4.266 V 5.727 c 0,-1.215 -0.965,-2.192 -2.172,-2.223 z M 8.988,4.926 c 0.27,0 0.485,0.215 0.485,0.484 V 6.922 C 9.473,7.188 9.258,7.406 8.988,7.406 8.719,7.406 8.5,7.188 8.5,6.922 V 5.41 C 8.5,5.141 8.719,4.926 8.988,4.926 Z"
       style="fill:#fafafa;fill-opacity:1;fill-rule:nonzero;stroke:none"
       id="path3155" /></g></svg>
